X: 2
T: The Humours Of Scarriff
R: reel
M: 4/4
L: 1/8
K: Ddor
d3e f2ed|cAGc AcGc|Adde fded|cAGE EDDA|d3e f2ed|cAGc AcGc|Adde fded|cAGE EDD2||ecgc acgc|ecgc eaag|ecgc acgc|edcd edd2|ecgc acgc|ecgc eaag|abag efed|cAGE EDD2||


Tune 1748	Setting 1748

